!!!COA:	Martini, Johannes
!!!ONB: Authorship should be categorized as "attributed"
!!!CDT:	~1440///-~1497//
!!!OTL:	Tibi Christe
!!!AGN:	Motet
!!!SCT:	Mar2096
!!!SCA:	Mar2096
!!!voices:	4
**kern	**kern	**kern	**kern
*staff4	*staff3	*staff2	*staff1
*Ivox	*Ivox	*Ivox	*Ivox
*I"Bassus	*I"Tenor	*I"Altus	*I"Superius
*I'B	*I'T	*I'A	*I'S
*clefF4	*clefGv2	*clefGv2	*clefG2
*k[]	*k[]	*k[]	*k[]
*M3/1	*M3/1	*M3/1	*M3/1
*met(O)	*met(O)	*met(O)	*met(O)
=1-	=1-	=1-	=1-
0E	0.r	0.r	0.r
1D	.	.	.
=2	=2	=2	=2
0G	0.r	0E	0.r
1A	.	1D	.
=3	=3	=3	=3
2B\	0.r	0G	0e
2.E\	.	.	.
4F\	.	.	.
4G\	.	.	.
4A\	.	.	.
1F	.	1A	1d
=4	=4	=4	=4
1E	0E	2.B\	0g
.	.	4A/	.
1r	.	2B\	.
.	.	2c\	.
1r	1D	1d	1a
=5	=5	=5	=5
0E	0G	1.B	2.b\
.	.	.	4a/
.	.	.	2b\
.	.	1e	2cc\
1F	1A	.	1a
.	.	2d\	.
=6	=6	=6	=6
1.E	0B	1.e	1.g
2D\	.	4d\	4f/
.	.	4c\	4e/
1G	1B	2B\	1d
.	.	[2G/	.
=7	=7	=7	=7
1E	1c	4G/]	1g
.	.	4F/	.
.	.	2G/	.
0D	0d	0A	2f/
.	.	.	1a
.	.	.	4g/
.	.	.	4f/
=8	=8	=8	=8
1A	1c	2r	2.e/
.	.	1e	.
.	.	.	4f/
2G\	2B\	.	2g/
2F\	2A/	2d\	1a
1E	1B	1e	.
.	.	.	2g#i/
=9	=9	=9	=9
1F	0.A	2c\	1a
.	.	1f	.
0A	.	.	1.cc
.	.	2e\	.
.	.	2c\	.
.	.	2d\	4b\
.	.	.	4a/
=10	=10	=10	=10
1C	0c	1e	1g
1F	.	1f	1.a
1G	1B	2e\	.
.	.	[2d\	2g/
=11	=11	=11	=11
1E	1G	2d\]	1.g
.	.	2c\	.
0D	0A	2d\	.
.	.	2A/	4f#i/
.	.	.	4e/
.	.	1d	1f#i
=12	=12	=12	=12
0E	0.G	2B\	0g
.	.	2.e\	.
.	.	4d\	.
.	.	2c\	.
1E	.	1B	1r
=13	=13	=13	=13
1AA	0.r	2A/	1a
.	.	2c\	.
1r	.	2B\	2g/
.	.	2A/	1a
1r	.	2.c\	.
.	.	.	2cc\
.	.	4B\	.
=14	=14	=14	=14
0.r	0.r	2G/	2b\
.	.	1c	2a/
.	.	.	2cc\
.	.	2d\	4b\
.	.	.	4a/
.	.	2e\	2g/
.	.	2f\	2a/
=15	=15	=15	=15
0.r	0.r	2g\	2b\
.	.	2.e\	2.cc\
.	.	4d\	4b\
.	.	2c\	1a
.	.	1B	.
.	.	.	2g#i/
=16	=16	=16	=16
2.AA/	0A	2r	0a
.	.	1e	.
4BB/	.	.	.
2C/	.	.	.
2D\	.	2f\	.
1BB	1G	1d	1b
=17	=17	=17	=17
1.AA	1.A	2c\	1.cc
.	.	2d\	.
.	.	1e	.
1E	2B\	.	4b\
.	.	.	4a/
.	1c	2r	2g/
2F\	.	2A/	4f/
.	.	.	4e/
=18	=18	=18	=18
1G	1B	2B\	2d/
.	.	2c\	2g/
0D	0A	1d	2a/
.	.	.	2.f/
.	.	2d\	.
.	.	.	4e/
.	.	[2d\	2f/
=19	=19	=19	=19
2r	2G/	2d\]	2g/
1A	2A/	2c\	1e
.	2c\	2e\	.
2D\	2d\	2f\	1a
1E	1B	1e	.
.	.	.	2g#i/
=20	=20	=20	=20
1F	0.A	2c\	1a
.	.	2.f\	.
1D	.	.	1r
.	.	4e\	.
.	.	1d	.
1F	.	.	1a
.	.	2c\	.
=21	=21	=21	=21
2G\	1r	2B\	2b\
1C	.	2.e\	1g
.	1r	.	.
.	.	4d\	.
2D\	.	1d	2f/
1AA	1A	.	1e
.	.	2c#i\	.
=22	=22	=22	=22
2D\	2B\	2d\	2d/
2E\	1G	2B\	2.e/
2C/	.	2c\	.
.	.	.	4d/
2D\	2F/	1A	1d
1AA	1E	.	.
.	.	2A/	2c#i/
=23	=23	=23	=23
1D	2D/	1F	2d/
.	2F/	.	2a/
2BB/	2G/	2r	2b\
2AA/	1A	2.c\	1cc
1E	.	.	.
.	.	4d\	.
.	2G/	2e\	2b\
=24	=24	=24	=24
2F\	2A/	2c\	2a/
2G\	2B\	1e	4g/
.	.	.	4f/
1A	1c	.	2e/
.	.	2f\	1a
1E	1B	1e	.
.	.	.	2g#i/
=25	=25	=25	=25
1F	0A	1c	1a
2D\	.	2d\	2r
2C/	.	2e\	2e/
2D\	2r	2d\	2f/
2E\	2E/	2B\	2g/
=26	=26	=26	=26
2D\	2F/	2r	2a/
2BB/	2G/	2G/	2b\
2AA/	2A/	2F/	2cc\
2GG/	2B\	2G/	4b\
.	.	.	4a/
2.C/	2c\	2E/	2g/
.	4B\	[2e\	2cc\
4D\	4A/	.	.
=27	=27	=27	=27
2E\	2G/	4e\]	2b\
.	.	4d\	.
1F	1A	4c\	4a/
.	.	4B\	4g/
.	.	2.c\	4f/
.	.	.	4e/
2C/	2G/	.	1e
.	.	4B\	.
1D	1F	4A/	.
.	.	4G/	.
.	.	2A/	2d/
=28	=28	=28	=28
0.Gl	0.El	0.Bl	0.el
==	==	==	==
*-	*-	*-	*-
!!!RDF**kern: l=long note in original notation
!!!RDF**kern: i=editorial accidental
!!!ENC:	Chris Gage 08-19-2014
!!!END:	2014/10/05/
!!!EED:	Jesse Rodin
!!!EEV:	2014/10/23/
!!!ONB:	Translated from MusicXML and edited on 2014/10/23/ by Craig Sapp
!!muse2ps: C^@{COA}?^i2I150v85,85,85,150Q16
